X:1
T:Title
%%score { ( 1 3 ) | 2 }
L:1/8
M:4/4
K:Eb
V:1 treble nm="Grand Piano"
V:3 treble 
V:2 bass 
V:1
 z4 z2[Q:1/4=100] [EG][FA] | [GB]2 [_G=A][=GB] [Ge]2 [Ac]2 | [GB]4 [B,EG]2 [B,EG]2 | %3
 [B,DB]2 [B,DF][EG] [DFA]2 [B,DB]2 | [B,EG]6[K:bass][K:treble] z2 | F2 GG A2 =A2 | B2 e2 B2 Bc | %7
 d2 cd [=Ae]2 [EA]2 |[M:3/4] [DB]6 |[M:1/4] [AB][AB] |[M:4/4] [Ge]2 [Gd][Gc] G2 [Gd]2 | %11
 [Gc]2 [Gc]4 [B,G]2 | [CGB]2 [CGB][CGB] [C=EB]2 [CEG]2 | [FA]4- [B,FA]2 [B,DG][A,DF] | %14
 [G,E]2 [DF][DF] G2 AB | c2 e4 dc | B2 [DAc][CFA] [B,EG]2 [A,DF]2 |[M:3/4] [G,E]6 |] %18
V:2
 z4 z2 [E,B,][E,B,] | [E,E]2 [E,E][E,E] [E,B,]2 [E,E]2 | [E,E]4 E,2 E,2 | B,,2 B,,B,, B,,2 B,,2 | %4
 E,6 [E,B,E][E,B,E] | [D,B,]2 [E,B,E][E,B,E] [F,B,D]2 [_G,CE]2 | %6
 [G,B,E]2 [G,B,E]2 [G,B,E]2 [_G,B,E][G,B,=E] | [F,B,F]2 [F,=A,F][F,B,F] [F,C]2 [F,C]2 | %8
[M:3/4] [B,,B,]6 |[M:1/4] [B,D][B,D] |[M:4/4] [E,E]2 [E,B,][E,B,] [E,B,]2 [E,B,]2 | %11
 [E,E]2 [E,E]4 E,2 | =E,2 E,E, C,2 C,2 | F,2 E,2 D,2 B,,B,, | %14
 C,2 [B,,B,][B,,B,] [E,B,E]2 [F,B,D][K:treble][G,B,E] | [A,E]2 [A,CA]4 [=A,D_G][A,EG] | %16
 [B,EG]2[K:bass] B,,B,, B,,2 B,,2 |[M:3/4] E,6 |] %18
V:3
 x8 | x8 | x8 | x8 | z2[K:bass] B,,>G,, E,,2[K:treble] GG | x8 | x8 | x8 |[M:3/4] x6 |[M:1/4] x2 | %10
[M:4/4] x8 | x8 | x8 | C4 z4 | x8 | x8 | x8 |[M:3/4] x6 |] %18

